Numix-Light/scalable/actions/appointment-new-symbolic.svg

<?xml version="1.0" encoding="UTF-8" standalone="no"?>
<!-- Created with Inkscape (http://www.inkscape.org/) -->

<svg
   xmlns:dc="http://purl.org/dc/elements/1.1/"
   xmlns:cc="http://creativecommons.org/ns#"
   xmlns:rdf="http://www.w3.org/1999/02/22-rdf-syntax-ns#"
   xmlns:svg="http://www.w3.org/2000/svg"
   xmlns="http://www.w3.org/2000/svg"
   xmlns:sodipodi="http://sodipodi.sourceforge.net/DTD/sodipodi-0.dtd"
   xmlns:inkscape="http://www.inkscape.org/namespaces/inkscape"
   sodipodi:docname="appointment-new-symbolic.svg"
   inkscape:export-filename="/home/sam/dev/RESOURCES/gnome-icon-theme-symbolic/src/gnome-stencils.png"
   inkscape:export-xdpi="90"
   inkscape:export-ydpi="90"
   height="16"
   id="svg7384"
   version="1.1"
   inkscape:version="0.91 r"
   width="16">
  <metadata
     id="metadata90">
    <rdf:RDF>
      <cc:Work
         rdf:about="">
        <dc:format>image/svg+xml</dc:format>
        <dc:type
           rdf:resource="http://purl.org/dc/dcmitype/StillImage" />
        <dc:title>elementary Symbolic Icon Theme</dc:title>
      </cc:Work>
    </rdf:RDF>
  </metadata>
  <sodipodi:namedview
     inkscape:bbox-nodes="true"
     inkscape:bbox-paths="true"
     bordercolor="#101010"
     borderopacity="1"
     inkscape:current-layer="layer9"
     inkscape:cx="3.5330479"
     inkscape:cy="6.6501027"
     gridtolerance="10"
     inkscape:guide-bbox="true"
     guidetolerance="10"
     id="namedview88"
     inkscape:object-nodes="true"
     inkscape:object-paths="false"
     objecttolerance="10"
     pagecolor="#ffffff"
     inkscape:pageopacity="0"
     inkscape:pageshadow="2"
     showborder="true"
     showgrid="true"
     showguides="true"
     inkscape:snap-bbox="true"
     inkscape:snap-bbox-edge-midpoints="true"
     inkscape:snap-bbox-midpoints="false"
     inkscape:snap-global="true"
     inkscape:snap-grids="true"
     inkscape:snap-nodes="true"
     inkscape:snap-others="false"
     inkscape:snap-to-guides="true"
     inkscape:window-height="1056"
     inkscape:window-maximized="1"
     inkscape:window-width="1920"
     inkscape:window-x="0"
     inkscape:window-y="24"
     inkscape:zoom="32">
    <inkscape:grid
       dotted="false"
       empspacing="4"
       enabled="true"
       id="grid4866"
       originx="0"
       originy="0"
       snapvisiblegridlinesonly="true"
       spacingx="1px"
       spacingy="1px"
       type="xygrid"
       visible="true" />
    <inkscape:grid
       color="#000000"
       dotted="true"
       empcolor="#000000"
       empopacity="0.25098039"
       empspacing="4"
       enabled="true"
       id="grid13609"
       opacity="0.1254902"
       originx="0"
       originy="0"
       snapvisiblegridlinesonly="true"
       spacingx="0.5px"
       spacingy="0.5px"
       type="xygrid"
       visible="true" />
  </sodipodi:namedview>
  <title
     id="title9167">elementary Symbolic Icon Theme</title>
  <defs
     id="defs7386" />
  <g
     inkscape:groupmode="layer"
     id="layer9"
     inkscape:label="status"
     style="display:inline"
     transform="translate(-473.0004,401.9276)">
    <rect
       style="opacity:1;fill:#353535;fill-opacity:1;fill-rule:nonzero;stroke:none;stroke-width:4;stroke-linecap:square;stroke-linejoin:miter;stroke-miterlimit:4;stroke-dasharray:none;stroke-dashoffset:0;stroke-opacity:1"
       id="rect4149"
       width="1"
       height="4"
       x="480.5004"
       y="-397.42761"
       rx="0.5"
       ry="0.5" />
    <rect
       style="opacity:1;fill:#353535;fill-opacity:1;fill-rule:nonzero;stroke:none;stroke-width:4;stroke-linecap:square;stroke-linejoin:miter;stroke-miterlimit:4;stroke-dasharray:none;stroke-dashoffset:0;stroke-opacity:1"
       id="rect4151"
       width="3"
       height="1"
       x="478.50021"
       y="-394.42761"
       rx="0.5"
       ry="0.5" />
    <path
       style="color:#000000;font-style:normal;font-variant:normal;font-weight:normal;font-stretch:normal;font-size:medium;line-height:normal;font-family:sans-serif;text-indent:0;text-align:start;text-decoration:none;text-decoration-line:none;text-decoration-style:solid;text-decoration-color:#000000;letter-spacing:normal;word-spacing:normal;text-transform:none;direction:ltr;block-progression:tb;writing-mode:lr-tb;baseline-shift:baseline;text-anchor:start;white-space:normal;clip-rule:nonzero;display:inline;overflow:visible;visibility:visible;opacity:1;isolation:auto;mix-blend-mode:normal;color-interpolation:sRGB;color-interpolation-filters:linearRGB;solid-color:#000000;solid-opacity:1;fill:#353535;fill-opacity:1;fill-rule:nonzero;stroke:none;stroke-width:2;stroke-linecap:square;stroke-linejoin:miter;stroke-miterlimit:4;stroke-dasharray:none;stroke-dashoffset:0;stroke-opacity:1;color-rendering:auto;image-rendering:auto;shape-rendering:auto;text-rendering:auto;enable-background:accumulate"
       d="M 8 1 C 4.14585 1 1 4.14585 1 8 C 1 11.85414 4.14585 15 8 15 C 8.3403208 15 8.6724024 14.967299 9 14.919922 L 9 12.900391 C 8.6772739 12.965178 8.342572 13 8 13 C 5.22673 13 3 10.77326 3 8 C 3 5.22673 5.22673 3 8 3 C 10.77327 3 13 5.22673 13 8 C 13 8.3425708 12.965178 8.6772746 12.900391 9 L 14.919922 9 C 14.967299 8.672403 15 8.3403199 15 8 C 15 4.14585 11.85415 1 8 1 z "
       transform="translate(473.0004,-401.9276)"
       id="path4148" />
    <g
       id="layer9-1"
       label="status"
       inkscape:label="status"
       style="display:inline"
       transform="translate(-18.81251,-399.93087)" />
    <g
       id="layer10-4"
       inkscape:label="devices"
       style="display:inline"
       transform="translate(-18.81251,-399.93087)" />
    <g
       id="layer13-5"
       inkscape:label="places"
       style="display:inline"
       transform="translate(-18.81251,-399.93087)" />
    <g
       id="layer14-3"
       inkscape:label="mimes"
       transform="translate(-18.81251,-399.93087)" />
    <g
       id="layer15-4"
       inkscape:label="emblems"
       style="display:inline"
       transform="translate(-18.81251,-399.93087)" />
    <g
       id="layer3"
       inkscape:label="categories"
       style="display:inline"
       transform="translate(222.18769,-966.93087)" />
    <g
       id="g41299"
       inkscape:label="apps"
       transform="translate(222.18769,-966.93087)" />
    <path
       style="display:inline;fill:#353535;fill-opacity:1;stroke:none"
       id="path26815"
       d="m 485.0004,-391.9276 0,2 -2,0 0,2 2,0 0,2 2,0 0,-2 2,0 0,-2 -2,0 0,-2 z"
       inkscape:connector-curvature="0"
       sodipodi:nodetypes="ccccccccccccc" />
  </g>
  <g
     inkscape:groupmode="layer"
     id="layer10"
     inkscape:label="devices"
     style="display:inline"
     transform="translate(-473.0004,401.9276)" />
  <g
     inkscape:groupmode="layer"
     id="layer11"
     inkscape:label="apps"
     transform="translate(-473.0004,401.9276)" />
  <g
     inkscape:groupmode="layer"
     id="layer13"
     inkscape:label="places"
     style="display:inline"
     transform="translate(-473.0004,401.9276)" />
  <g
     inkscape:groupmode="layer"
     id="layer14"
     inkscape:label="mimetypes"
     transform="translate(-473.0004,401.9276)" />
  <g
     inkscape:groupmode="layer"
     id="layer15"
     inkscape:label="emblems"
     style="display:inline"
     transform="translate(-473.0004,401.9276)" />
  <g
     inkscape:groupmode="layer"
     id="g71291"
     inkscape:label="emotes"
     style="display:inline"
     transform="translate(-473.0004,401.9276)" />
  <g
     inkscape:groupmode="layer"
     id="g4953"
     inkscape:label="categories"
     style="display:inline"
     transform="translate(-473.0004,401.9276)" />
  <g
     inkscape:groupmode="layer"
     id="layer12"
     inkscape:label="actions"
     style="display:inline"
     transform="translate(-473.0004,401.9276)" />
</svg>

<!-- Created with Inkscape (http://www.inkscape.org/) -->
<svg xmlns="http://www.w3.org/2000/svg" viewBox="0 0 16 16">
 <g transform="translate(-473.0004,401.9276)" style="display:inline">
  <rect width="1" height="4" x="480.5" y="-397.43" rx="0.5" style="fill:#353535;opacity:1;fill-opacity:1;stroke:none;fill-rule:nonzero"/>
  <rect width="3" height="1" x="478.5" y="-394.43" rx="0.5" style="fill:#353535;opacity:1;fill-opacity:1;stroke:none;fill-rule:nonzero"/>
  <path d="m 8 1 c -3.854 0 -7 3.146 -7 7 c 0 3.854 3.146 7 7 7 c 0.34 0 0.672 -0.033 1 -0.08 l 0 -2.02 c -0.323 0.065 -0.657 0.1 -1 0.1 c -2.773 0 -5 -2.227 -5 -5 c 0 -2.773 2.227 -5 5 -5 c 2.773 0 5 2.227 5 5 c 0 0.343 -0.035 0.677 -0.1 1 l 2.02 0 c 0.047 -0.328 0.08 -0.66 0.08 -1 c 0 -3.854 -3.146 -7 -7 -7 z" transform="translate(473.0004,-401.9276)" mix-blend-mode="normal" isolation="auto" white-space="normal" solid-opacity="1" solid-color="#000000" style="visibility:visible;shape-rendering:auto;color-interpolation-filters:linearRGB;fill:#353535;opacity:1;image-rendering:auto;fill-opacity:1;stroke:none;color:#000;fill-rule:nonzero;color-rendering:auto;color-interpolation:sRGB"/>
  <path d="m 485 -391.93 0 2 -2 0 0 2 2 0 0 2 2 0 0 -2 2 0 0 -2 -2 0 0 -2 z" style="fill:#353535;fill-opacity:1;stroke:none"/>
 </g>
</svg>
